X:1
T:da Full Rigged Ship
C:Shetland Jig
Z:Dan Mozell <dan.mozell:nashville.COM>
M:6/8
K:Am
"Am" e2a aea | aea "G" b2 a | "Em" e2 ^f "C" g2 g | gag "D" ^f2 d |
"Am" e2 a aea | aea "G" b2 a | "Em" g2 e edB | "Am" A3 A3 :|
|: "Am" efe edB | A2 B "C" c3 | "G" B2 G B2 G | "G" Bcd "Em" E3 |
"Am" efe edB | A2 B "C" c2 d | "Em" efe dBG | "Am" A3 A3 :|
|: "Em" EGE EGE | EGE "C" c3 | "Am" EGE E2D | "C" E2 GEC |
"Em" EGE EGE | EGE "C" c2d | "Em" efe dBG | "Am" A3 A3 ||
